src/assets/images/footer/messenger.svg

<svg width="25" height="24" viewBox="0 0 25 24" fill="none" xmlns="http://www.w3.org/2000/svg">
<path d="M12.3052 0.960022C6.33923 0.960022 1.45996 5.48564 1.45996 11.098C1.45996 14.1667 2.93719 16.8909 5.23223 18.7457V22.96L5.9248 22.5916L9.32868 20.8234C10.2791 21.0776 11.2682 21.236 12.3052 21.236C18.2712 21.236 23.1505 16.7104 23.1505 11.098C23.1505 5.48564 18.2712 0.960022 12.3052 0.960022ZM12.3052 1.90309C17.796 1.90309 22.2074 6.03269 22.2074 11.098C22.2074 16.1633 17.796 20.2929 12.3052 20.2929C11.2848 20.2929 10.2975 20.1456 9.37289 19.8803L9.19606 19.8361L9.03397 19.9245L6.1753 21.4128V18.3184L5.99847 18.1857C3.79921 16.493 2.40303 13.9456 2.40303 11.098C2.40303 6.03269 6.81445 1.90309 12.3052 1.90309ZM11.2296 8.37194L5.55641 14.384L10.6549 11.5253L13.3809 14.4429L18.9804 8.37194L14.0145 11.1569L11.2296 8.37194Z" fill="#E5E5E5"/>
</svg>

<svg width="25" height="24" fill="none" xmlns="http://www.w3.org/2000/svg"><path d="M12.305.96C6.34.96 1.46 5.486 1.46 11.098c0 3.069 1.477 5.793 3.772 7.648v4.214l.693-.368 3.404-1.769c.95.255 1.94.413 2.976.413 5.966 0 10.846-4.526 10.846-10.138S18.27.96 12.305.96Zm0 .943c5.491 0 9.902 4.13 9.902 9.195s-4.411 9.195-9.902 9.195c-1.02 0-2.008-.147-2.932-.413l-.177-.044-.162.088-2.859 1.489v-3.095l-.177-.132c-2.199-1.693-3.595-4.24-3.595-7.088 0-5.065 4.411-9.195 9.902-9.195ZM11.23 8.372l-5.674 6.012 5.099-2.859 2.726 2.918 5.6-6.071-4.967 2.785-2.784-2.785Z" fill="#E5E5E5"/></svg>
